X: 30725
T: Orkney, The
R: hornpipe
M: 4/4
K: Gminor
|:B>cd>B c>A B2|F>ED>B, C>A,B,2|c>BA>B c>de>c|A>cB>c d>e f2|
B>cd>B F>D B,2|D>FA>B (3cBA B2|F>DE>G c>edc|B>A c2 B2 B2:|
|:(3fga b>f d>BF>B|d>fg>f =e>fd>B|A>FE>G c>eD>F|B>dc>B A>B c2|
(3fga b>f d>BF>B|d>fg>f =e>fd>B|A>FE>G c>ed>c|B>A c2 B2 B2:|

